X:64
T:Monfrina
C:Roberto Tombesi
C:Bagolino e Ponte Caffaro
M:12/8
L:1/8
K:G
z2d|g2g gfe f2f fed|e2e efe d3-d2e|\
e2d dcB d2c cde|f2f fgf e2d d3|
g2g gfe f2f fed|e2e efe d3-d2e|\
e2d dcB d2c cde|fed cBA Gz2:|
K:C\
|:G3|e2e efe d2c cBA|G2G GFE G2F Fde|\
f2f fgf e2d d2c|BGB BGB AGA Bcd|
e2e efe d2c c2c|cGc cde g2f f3|\
a2a agf g2g gfe|d2d dcB c3:|
